**kern	**silbe	**kern	**silbe
*ICvox	*	*ICvox	*
*d:	*	*d:	*
*M4/4	*	*M4/4	*
*clefC3	*	*clefC3	*
r;	.	r;	.
=1	=1	=1	=1
16d	Shoo!	1r	.
8.r	.	.	.
4r	.	.	.
4r	.	.	.
8.r	.	.	.
16d	Sh-	.	.
=2	=2	=2	=2
16d	-oo!	1r	.
8.r	.	.	.
4r	.	.	.
4r	.	.	.
8.r	.	.	.
16d	Sh-	.	.
=3	=3	=3	=3
16d	-oo!	1r	.
8.r	.	.	.
4r	.	.	.
4r	.	.	.
8.r	.	.	.
16d	Sh-	.	.
=4	=4	=4	=4
16d	-oo!	1r	.
16r	.	.	.
8r	.	.	.
4r	.	.	.
2r	.	.	.
=5	=5	=5	=5
8r	.	1r	.
8eq	_	.	.
8f	Here	.	.
16f	come	.	.
8.f	old	.	.
8f	flat	.	.
8d	top,	.	.
8c	he	.	.
8d	come	.	.
=6	=6	=6	=6
8r	.	1r	.
8eq	_	.	.
8f	groo-	.	.
16f	-ving	.	.
8.f	up	.	.
8f	slow-	.	.
8d	-ly,	.	.
8c	he	.	.
8d	got	.	.
=7	=7	=7	=7
8r	.	1r	.
8eq	_	.	.
4f	joo	.	.
8f	joo	.	.
8f	eye-	.	.
8d	-ball,	.	.
8c	he	.	.
8d	one	.	.
=8	=8	=8	=8
8r	.	1r	.
4f	ho-	.	.
8d	-ly	.	.
8f	rol-	.	.
8d	-ler,	.	.
8c	he	.	.
8d	got	.	.
=9	=9	=9	=9
8r	.	1r	.
8dq	_	.	.
8e	hair	.	.
4r	.	.	.
8d#q	_	.	.
4e	down	.	.
4r	.	.	.
=10	=10	=10	=10
4.e	to	1r	.
8d	his	.	.
8e	knee	.	.
8r	.	.	.
4r	.	.	.
=11	=11	=11	=11
8f	got	1r	.
8f	to	.	.
8f	be	.	.
8f	a	.	.
8f	jo-	.	.
8f	-ker,	.	.
8f	he	.	.
8f	just	.	.
=12	=12	=12	=12
8f	do	1r	.
8f	what	.	.
8f	he	.	.
8f	please	.	.
4r	.	.	.
8.r	.	.	.
16d	Sh-	.	.
=13	=13	=13	=13
16d	-oo!	1r	.
8.r	.	.	.
4r	.	.	.
4r	.	.	.
8.r	.	.	.
16d	Sh-	.	.
=14	=14	=14	=14
16d	-oo!	1r	.
8.r	.	.	.
4r	.	.	.
4r	.	.	.
8.r	.	.	.
16d	Sh-	.	.
=15	=15	=15	=15
16d	-oo!	1r	.
8.r	.	.	.
4r	.	.	.
4r	.	.	.
8.r	.	.	.
16d	Sh-	.	.
=16	=16	=16	=16
16d	-oo!	1r	.
16r	.	.	.
8r	.	.	.
4r	.	.	.
2r	.	.	.
=17	=17	=17	=17
8r	.	1r	.
8eq	_	.	.
8f	He	.	.
8f	wear	.	.
8f	no	.	.
8f	shoe	.	.
8d	shine,	.	.
8c	he	.	.
8d	got	.	.
=18	=18	=18	=18
8r	.	8r	.
8eq	_	8Bq	_
4f	toe	4c	toe
8f	jam	8B	jam
8f	foot-	8c	foot-
8d	-ball,	8A	-ball,
8c	he	4r	.
8d	got	.	.
=19	=19	=19	=19
8r	.	8r	.
16eQ	_	8Bq	_
4f	mon-	4c	mon-
8d	-key	8B	-key
8e	fin-	8c	fin-
8d	-ger,	8A	-ger,
8c	he	4r	.
8d	shoot	.	.
=20	=20	=20	=20
8r	.	8r	.
.	.	8Bq	_
4f	Co-	4c	Co-
8d	-ca	8B	-ca
8f	Co-	8c	Co-
8d	-la,	8A	-la,
8c	he	4r	.
8d	say	.	.
=21	=21	=21	=21
8r	.	8r	.
8e	\"I	8c	\"I
.	.	8cq	_
8e	know	8c#	know
16d#	_	16B	_
[16e	you	[16c	you
8e]	_	8c]	_
8r	.	8r	.
4r	.	4r	.
=22	=22	=22	=22
8e	you	8e	you
8e	know	8e	know
8d#	_	8d#	_
8e	me	8e	me
2r	.	2r	.
=23	=23	=23	=23
8f	one	1r	.
8f	thing	.	.
8f	I	.	.
8f	can	.	.
8f	tell	.	.
8f	you	.	.
8f	is	.	.
8f	you	.	.
=24	=24	=24	=24
8f	got	2r	.
8f	to	.	.
8f	be	.	.
[8f	free!\"	.	.
8f]	_	4r	.
8r	.	.	.
8d	Come	8A	Come
16d	to-	16A	to-
8gq	_	.	.
[16a	_	[16d	_
=25	=25	=25	=25
16a]	_	16d]	_
16eQ	_	16AQ	_
8.f#	_	8.B	_
4r	.	4r	.
4r	.	2r	.
8eq	_	.	.
4f#	right	.	.
=26	=26	=26	=26
16e	now	1r	.
16d	_	.	.
8B	_	.	.
4r	.	.	.
4r	.	.	.
8Aq	_	.	.
8B	o-	.	.
16d	-ver	.	.
16d	me!	.	.
=27	=27	=27	=27
2r	.	1r	.
4r	.	.	.
8.r	.	.	.
16d	Sh-	.	.
=28	=28	=28	=28
16d	-oo!	1r	.
8.r	.	.	.
4r	.	.	.
4r	.	.	.
8.r	.	.	.
16d	Sh-	.	.
=29	=29	=29	=29
16d	-oo!	1r	.
8.r	.	.	.
4r	.	.	.
4r	.	.	.
8.r	.	.	.
16d	Sh-	.	.
=30	=30	=30	=30
16d	-oo!	1r	.
16r	.	.	.
8r	.	.	.
4r	.	.	.
2r	.	.	.
=31	=31	=31	=31
8r	.	1r	.
8eq	_	.	.
8f	He	.	.
8f	bag	.	.
16d	pro-	.	.
16f	-duc	.	.
16r	.	.	.
8d	tion	.	.
16r	.	.	.
8c	he	.	.
8d	got	.	.
=32	=32	=32	=32
8r	.	8r	.
8eq	_	8Bq	_
4f	wal-	4c	wal-
8d	-rus	8B	-rus
8f	gum-	8c	gum-
8d	-boot,	8A	-boot,
8c	he	4r	.
8d	got	.	.
=33	=33	=33	=33
8r	.	8r	.
16eQ	_	8Bq	_
4f	O-	4c	O-
8d	-no	8B	-no
8e	side-	8B	side-
8d	-board,	8A	-board,
8c	he	4r	.
8d	one	.	.
=34	=34	=34	=34
8r	.	8r	.
.	.	8Bq	_
4f	spi-	4c	spi-
8d	-nal	8B	-nal
8f	crac-	8c	crac-
8d	-ker,	8A	-ker,
8c	he	4r	.
8d	got	.	.
=35	=35	=35	=35
8r	.	8r	.
8dq	_	8Bq	_
8e	feet	8c	feet
4r	.	4r	.
8d#q	_	8Bq	_
4e	down	4c	down
8d	be-	8c	be-
[8e	-low	8c	-low
=36	=36	=36	=36
4e]	_	8c#	_
.	.	8c	_
8d	his	8B-	his
8e	knee	8c	knee
2r	.	2r	.
=37	=37	=37	=37
8f	hold	1r	.
8f	you	.	.
8f	in	.	.
8f	his	.	.
8f	arm-	.	.
8f	-chair,	.	.
8f	you	.	.
8f	can	.	.
=38	=38	=38	=38
8f	feel	2r	.
8f	his	.	.
8f	dis-	.	.
[8f	-ease	.	.
8f]	_	4r	.
8r	.	.	.
8d	Come	8A	Come
16d	to-	16A	to-
8gq	_	.	.
[16a	-ge	[16d	-ge
=39	=39	=39	=39
16a]	_	16d]	_
16eQ	_	16AQ	_
8.f#	ther	8.B	ther
4r	.	4r	.
4r	.	2r	.
8eq	_	.	.
4f#	right	.	.
=40	=40	=40	=40
16e	now	1r	.
16d	_	.	.
8B	_	.	.
4r	.	.	.
4r	.	.	.
8B	o-	.	.
16d	-ver	.	.
16d	me!	.	.
=41	=41	=41	=41
2r	.	1r	.
4r	.	.	.
8.r	.	.	.
16d	Sh-	.	.
=42	=42	=42	=42
16d	-oo!	1r	.
16r	.	.	.
8r	.	.	.
4r	.	.	.
8.r	.	.	.
[16b-	Right!	.	.
4b-]	_	.	.
=43	=43	=43	=43
1r	.	1r	.
=44	=44	=44	=44
1r	.	1r	.
=45	=45	=45	=45
1r	.	1r	.
=46	=46	=46	=46
2r	.	1r	.
8.r	.	.	.
[16g	Come	.	.
16g]	_	.	.
8d	on	.	.
16r	.	.	.
=47	=47	=47	=47
1r	.	1r	.
=48	=48	=48	=48
1r	.	1r	.
=49	=49	=49	=49
1r	.	1r	.
=50	=50	=50	=50
1r	.	1r	.
=51	=51	=51	=51
1r	.	1r	.
=52	=52	=52	=52
1r	.	1r	.
=53	=53	=53	=53
8r	.	1r	.
8eq	_	.	.
8f	He	.	.
8f	rol-	.	.
16d	-ler	.	.
16f	coas	.	.
16r	.	.	.
8d	ter	.	.
16r	.	.	.
8c	he	.	.
8d	got	.	.
=54	=54	=54	=54
8r	.	8r	.
8eq	_	8Bq	_
4f	ear-	8c	ear-
.	.	4B	_
8d	-ly	.	.
8f	war-	8c	-war-
8d	-ning,	8A	-ning,
8c	he	4r	.
8d	got	.	.
=55	=55	=55	=55
8r	.	8r	.
16eQ	_	8Bq	_
4f	mud-	4c	mud-
8d	-dy	8B	-dy
8f	wa-	8c	wa-
8d	-ter,	8A	-ter,
8c	he	4r	.
8d	one	.	.
=56	=56	=56	=56
8r	.	8r	.
8eq	_	8Bq	_
4f	mo-	4c	mo-
8d	-jo	8B	-jo
8f	fil-	8c	fil-
8d	-ter,	8A	-ter,
8c	he	4r	.
8d	say	.	.
=57	=57	=57	=57
8r	.	8r	.
8dq	_	8B#q	_
4e	\"one	4c#	\"one
8d	and	8B#	and
4e	one	4c#	one
8d	and	8B#	and
[8e	one	[8c#	one
=58	=58	=58	=58
4e]	_	4c#]	_
8d	is	8B#	is
8e	three,\"	8c#	three,\"
2r	.	2r	.
=59	=59	=59	=59
8f	got	8f	got
8f	to	8f	to
8f	be	8f	be
8f	good	16f	good
.	.	16f	l-
8f	loo-	8f	-loo-
8f	-king	8f	-king
8f	cuz	8f	cuz
8f	he	8f	he
=60	=60	=60	=60
8f	so	8f	so
8f	hard	8f	hard
8d	to	8d	to
[8f	see	[8f	see
8f]	_	8f]	_
8r	.	8r	.
8d	Come	8A	Come
16d	to	16A	to
8gq	_	.	.
[16a	ge	[16d	ge
=61	=61	=61	=61
16a]	_	16d]	_
16eQ	_	16AQ	_
8.f#	ther	8.B	ther
4r	.	4r	.
4r	.	2r	.
8eq	_	.	.
4f#	right	.	.
=62	=62	=62	=62
16e	now	1r	.
16d	_	.	.
8B	_	.	.
4r	.	.	.
4r	.	.	.
8B	o-	.	.
16d	-ver	.	.
16d	me!	.	.
=63	=63	=63	=63
2r	.	1r	.
4r	.	.	.
8.r	.	.	.
16d	Sh-	.	.
=64	=64	=64	=64
16d	-oo!	1r	.
8.r	.	.	.
4r	.	.	.
4r	.	.	.
8.r	.	.	.
16d	Sh-	.	.
=65	=65	=65	=65
16d	-oo!	1r	.
8.r	.	.	.
4r	.	.	.
4r	.	.	.
8.r	.	.	.
16d	Sh-	.	.
=66	=66	=66	=66
16d	-oo!	1r	.
16r	.	.	.
8r	.	.	.
4r	.	.	.
4r	.	.	.
16r	.	.	.
8.a-	Ungh!	.	.
=67	=67	=67	=67
1r	.	1r	.
=68	=68	=68	=68
1r	.	1r	.
=69	=69	=69	=69
4r	.	1r	.
8e	Come	.	.
16f	to-	.	.
[16e	-ge	.	.
16e]	_	.	.
8d	ther	.	.
16r	.	.	.
4r	.	.	.
=70	=70	=70	=70
4r	.	1r	.
8f	Yeah!	.	.
2r	.	.	.
8r	.	.	.
=71	=71	=71	=71
4r	.	1r	.
8e	Come	.	.
16f	to-	.	.
[16e	-ge	.	.
16e]	_	.	.
8d	ther	.	.
16r	.	.	.
4r	.	.	.
=72	=72	=72	=72
4c	Yeah!	1r	.
4r	.	.	.
2r	.	.	.
=73	=73	=73	=73
4r	.	1r	.
8e	Come	.	.
16f	to-	.	.
[16e	-ge	.	.
16e]	_	.	.
8d	ther	.	.
16r	.	.	.
4r	.	.	.
=74	=74	=74	=74
4d	Yeah!	1r	.
4r	.	.	.
2r	.	.	.
=75	=75	=75	=75
4r	.	1r	.
8e	Come	.	.
16f	to-	.	.
[16e	-ge	.	.
16e]	_	.	.
8d	ther	.	.
16r	.	.	.
4r	.	.	.
=76	=76	=76	=76
4d	Yeah!	1r	.
4r	.	.	.
2r	.	.	.
=77	=77	=77	=77
4r	.	1r	.
8e	Come	.	.
16f	to-	.	.
[16e	-ge	.	.
16e]	_	.	.
8d	ther	.	.
16r	.	.	.
8.r	.	.	.
16d	Y-	.	.
=78	=78	=78	=78
4a	-yeah!	1r	.
4r	.	.	.
2r	.	.	.
=79	=79	=79	=79
4r	.	1r	.
8e	Come	.	.
16f	to-	.	.
[16e	-ge	.	.
16e]	_	.	.
8d	ther	.	.
16r	.	.	.
8.r	.	.	.
16ccQ	_	.	.
[16dd	Yeah	.	.
=80	=80	=80	=80
2.dd]	_	1r	.
8r	.	.	.
8r	.	.	.
=81	=81	=81	=81
4r	.	1r	.
8e	Come	.	.
16f	to-	.	.
[16e	-ge	.	.
16e]	_	.	.
8d	ther	.	.
16r	.	.	.
8.r	.	.	.
16ccQ	_	.	.
[16dd	Yeah	.	.
=82	=82	=82	=82
2dd]	_	1r	.
2r	.	.	.
=83	=83	=83	=83
4r	.	1r	.
[2.D	Uh!	.	.
=84	=84	=84	=84
4D]	_	1r	.
4r	.	.	.
2r	.	.	.
=85	=85	=85	=85
4r	.	1r	.
8e	Come	.	.
16f	to-	.	.
[16e	-ge	.	.
16e]	_	.	.
8d	ther	.	.
16r	.	.	.
8.r	.	.	.
[16e	Yeah!	.	.
=86	=86	=86	=86
8.e]	_	1r	.
16r	.	.	.
4r	.	.	.
2r	.	.	.
=87	=87	=87	=87
4r	.	1r	.
8e	Come	.	.
16f	to-	.	.
[16e	-ge	.	.
16e]	_	.	.
8d	ther	.	.
16r	.	.	.
8.r	.	.	.
16ccQ	_	.	.
[16dd	Yeah	.	.
=88	=88	=88	=88
2.dd_	_	1r	.
8dd]	_	.	.
8r	.	.	.
=89	=89	=89	=89
4r	.	1r	.
8e	Come	.	.
16f	to-	.	.
[16e	-ge	.	.
16e]	_	.	.
8d	ther	.	.
16r	.	.	.
4r	.	.	.
=90	=90	=90	=90
1r	.	1r	.
=91	=91	=91	=91
1r	.	1r	.
r;	.	r;	.
r;	.	r;	.
*-	*-	*-	*-
!!!ENC: Nathaniel Condit-Schultz